!!!COM: Ernest Chausson
!!!CNT: Francais
!!!TXO: Francais
!!!OTL: "Apaisement"
!!!LYR: Verlaine
!!!OPR: Quatre me/lodies
!!!OPS: Op. 13
!!!ONM: No. 1
!!!ENC: Emily Thomas
!!!YOR: CD Sheet Music French Art Songs, The Ultimate Collection
!!!YOR: CD Sheet Music, LLC 2003
!!!ODT: 1885/
!!NB: Vocal melody and text encoded.
**kern	**silbe
=1	=1
*clefG2	*
*k[f#]	*
*M1/2	*
*MM[Pas trop lent.]	*
2r	.
=2	=2
2r	.
=3	=3
2r	.
=4	=4
{6f#	{La
6g	lu-
6a	-ne
=5	=5
[2b	blan-
=6	=6
4b]	|
4b}	-che}
=7	=7
4r	.
{4f#	{Luit
=8	=8
4g	dans
4a	les
=9	=9
[2ee	bois.
=10	=10
2ee_	|
=11	=11
2ee_	|
=12	=12
2ee_	|
=13	=13
4ee]}	|}
4r	.
=14	=14
4r	.
{4b	{De
=15	=15
4cc	cha-
4dd	-que
=16	=16
4cc	bran-
4b	-che
=17	=17
2b	Part
=18	=18
4a	u-
4g	-ne
=19	=19
[2b	voix
=20	=20
4b]	|
4g	Sous
=21	=21
4f#	la
4e	ra-
=22	=22
2g	me-
=23	=23
[2g	-e
=24	=24
4g]}	|}
4r	.
=25	=25
2r	.
=26	=26
2r	.
=27	=27
4r	.
{[4e	{O
=28	=28
2e]	|
=29	=29
2e	bien
=30	=30
2e	ai-
=31	=31
2e-	-me/-
=32	=32
4e-}	-e}
4r	.
=33	=33
2r	.
=34	=34
2r	.
=35	=35
4r	.
{4a-	{L'e/-
=36	=36
4.cc	-tang
8cc	re-
=37	=37
4.b	-fle\-
8e}	-te,}
=38	=38
4r	.
{4fn	{Pro-
=39	=39
4fn	-fond
4g	mi-
=40	=40
[4g	-roir,
8g]}	|}
8r	.
=41	=41
{4g#	{La
8g#	sil-
8g#	-hou-
=42	=42
4a	-et-
4a	-te
=43	=43
6g#	Du
6g#	san-
6g#	-le
=44	=44
[2a	noir
=45	=45
4a]	|
4a	Ou\
=46	=46
4g	le
4fn	vent
=47	=47
[2e	pleu
=48	=48
2e]	|
=49	=49
[2e	-re.
=50	=50
4e]}	|}
4r	.
=51	=51
2r	.
=52	=52
4r	.
{4g#	{Re\-
=53	=53
2g#}	-vons,}
=54	=54
2r	.
=55	=55
4r	.
{4a	{c\est
=56	=56
2cc	l'heu-
=57	=57
[4b	-re.
8b]}	|}
8r	.
=58	=58
2r	.
=59	=59
4r	.
{4b	{Un
=60	=60
[2cc#	vaste
=61	=61
4cc#]	|
4f#	et
=62	=62
4f#	tender
4f#	A-
=63	=63
4g#	-pai-
4a	-se-
=64	=64
[2ee	-ment
=65	=65
2ee_	|
=66	=66
4ee]}	|}
{4ee	{Sem-
=67	=67
4dd	-ble
4cc	des-
=68	=68
4b	-cen-
4b	-dre
=69	=69
4a	Du
8a	fir-
8a	-ma-
=70	=70
4g	-ment
4g	Que
=71	=71
2a	l'astr-
=72	=72
2b	-i-
=73	=73
[2f#	-ri-
=74	=74
4f#]	|
4f#}	-se.}
=75	=75
2r	.
=76	=76
2r	.
=77	=77
2r	.
=78	=78
2r	.
=79	=79
2r	.
=80	=80
{2fn	{C'est
=81	=81
2f#	l'heure
=82	=82
2b	ex-
=83	=83
[2gg	-qui-
=84	=84
2gg_	|
=85	=85
2gg_	|
=86	=86
4.gg]	|
8e	|
=87	=87
[2e	-se!
=88	=88
2e]}	|}
==	==
*-	*-
